assets/svg/1F620.svg

<svg xmlns="http://www.w3.org/2000/svg" viewBox="0 0 64 64" enable-background="new 0 0 64 64"><circle fill="#fbb041" cx="31.73" cy="31.73" r="31.73"/><path fill="#fff" d="m35.823 31.352c0 5.336 2.887 9.656 6.449 9.656 3.562 0 6.448-4.32 6.448-9.656 0-5.333-2.887-9.656-6.448-9.656-3.562-.0001-6.449 4.322-6.449 9.656"/><path fill="#25333a" d="m38.1 31.352c0 2.795 1.865 5.06 4.172 5.06 2.306 0 4.171-2.265 4.171-5.06 0-2.794-1.865-5.059-4.171-5.059-2.307-.0001-4.172 2.265-4.172 5.059"/><path fill="#633d19" d="m34.16 27.25c1.867-6.641 10.355-10.152 16.683-10.223 1.848-.021 2.27 2.863.394 2.882-5.325.061-12.756 2.234-14.358 7.934-.511 1.807-3.223 1.194-2.719-.593"/><g opacity=".987"><path fill="#e79d3c" d="m15.1 40.914c-5.622-12.06-5.875-25.05-.79-35.784-8.614 5.675-14.312 15.419-14.312 26.508 0 17.521 14.206 31.727 31.732 31.727.313 0 .615-.037.927-.047-7.272-6.123-13.401-13.49-17.557-22.404"/></g><path fill="#fff" d="m27.16 31.02c0 5.336-2.887 9.656-6.449 9.656-3.562 0-6.449-4.32-6.449-9.656 0-5.333 2.886-9.656 6.449-9.656 3.562 0 6.449 4.323 6.449 9.656"/><ellipse fill="#25333a" cx="20.706" cy="31.02" rx="4.172" ry="5.06"/><g fill="#633d19"><path d="m28.816 26.917c-1.868-6.641-10.356-10.152-16.683-10.223-1.848-.021-2.269 2.863-.394 2.882 5.326.061 12.756 2.234 14.359 7.934.51 1.808 3.222 1.195 2.718-.593"/><path d="m21.26 51.3c-.625.713-.239 1.904.79 1.904 1.188 0 5.451-1.799 9.68-1.799 4.734 0 9.421 1.799 9.68 1.799 1.028 0 1.406-1.191.795-1.904-5.673-6.541-15.282-6.541-20.945 0"/></g></svg>

<?xml version="1.0" encoding="UTF-8" standalone="no"?>
<!-- Generator: Adobe Illustrator 16.0.0, SVG Export Plug-In . SVG Version: 6.00 Build 0)  -->

<svg
   xmlns:dc="http://purl.org/dc/elements/1.1/"
   xmlns:cc="http://creativecommons.org/ns#"
   xmlns:rdf="http://www.w3.org/1999/02/22-rdf-syntax-ns#"
   xmlns:svg="http://www.w3.org/2000/svg"
   xmlns="http://www.w3.org/2000/svg"
   xmlns:sodipodi="http://sodipodi.sourceforge.net/DTD/sodipodi-0.dtd"
   xmlns:inkscape="http://www.inkscape.org/namespaces/inkscape"
   version="1.1"
   id="Layer_1"
   x="0px"
   y="0px"
   width="64px"
   height="64px"
   viewBox="0 0 64 64"
   enable-background="new 0 0 64 64"
   xml:space="preserve"
   inkscape:version="0.48.5 r10040"
   sodipodi:docname="1F620.svg"
   inkscape:export-filename="D:\TESTINGEMOJI\SVGTEST\1F620.png"
   inkscape:export-xdpi="90"
   inkscape:export-ydpi="90"><metadata
   id="metadata5292"><rdf:RDF><cc:Work
       rdf:about=""><dc:format>image/svg+xml</dc:format><dc:type
         rdf:resource="http://purl.org/dc/dcmitype/StillImage" /><dc:title></dc:title></cc:Work></rdf:RDF></metadata><defs
   id="defs5290" /><sodipodi:namedview
   pagecolor="#ffffff"
   bordercolor="#666666"
   borderopacity="1"
   objecttolerance="10"
   gridtolerance="10"
   guidetolerance="10"
   inkscape:pageopacity="0"
   inkscape:pageshadow="2"
   inkscape:window-width="640"
   inkscape:window-height="480"
   id="namedview5288"
   showgrid="false"
   inkscape:zoom="3.6875"
   inkscape:cx="32"
   inkscape:cy="32"
   inkscape:window-x="764"
   inkscape:window-y="258"
   inkscape:window-maximized="0"
   inkscape:current-layer="Layer_1" />
<g
   id="g5226">
	<g
   id="g5228">
		<g
   id="g5230">
			<circle
   fill="#FBB041"
   cx="31.73"
   cy="31.73"
   r="31.73"
   id="circle5232" />
		</g>
	</g>
	<g
   id="g5234">
		<g
   id="g5236">
			<g
   id="g5238">
				<path
   fill="#FFFFFF"
   d="M35.823,31.352c0,5.336,2.887,9.656,6.449,9.656c3.562,0,6.448-4.32,6.448-9.656      c0-5.333-2.887-9.656-6.448-9.656C38.71,21.695,35.823,26.018,35.823,31.352z"
   id="path5240" />
			</g>
		</g>
		<g
   id="g5242">
			<g
   id="g5244">
				<path
   fill="#25333A"
   d="M38.101,31.352c0,2.795,1.865,5.06,4.172,5.06c2.306,0,4.171-2.265,4.171-5.06      c0-2.794-1.865-5.059-4.171-5.059C39.966,26.292,38.101,28.558,38.101,31.352z"
   id="path5246" />
			</g>
		</g>
		<g
   id="g5248">
			<g
   id="g5250">
				<path
   fill="#633D19"
   d="M34.162,27.247c1.867-6.641,10.355-10.152,16.683-10.223c1.848-0.021,2.27,2.863,0.394,2.882      c-5.325,0.061-12.756,2.234-14.358,7.934C36.37,29.647,33.658,29.034,34.162,27.247z"
   id="path5252" />
			</g>
		</g>
	</g>
	<g
   opacity="0.9866"
   id="g5254">
		<g
   id="g5256">
			<g
   id="g5258">
				<path
   fill="#E79D3C"
   d="M15.102,40.914C9.48,28.85,9.227,15.864,14.312,5.13C5.698,10.805,0,20.549,0,31.638      c0,17.521,14.206,31.727,31.732,31.727c0.313,0,0.615-0.037,0.927-0.047C25.387,57.195,19.258,49.828,15.102,40.914z"
   id="path5260" />
			</g>
		</g>
	</g>
	<g
   id="g5262">
		<g
   id="g5264">
			<g
   id="g5266">
				<path
   fill="#FFFFFF"
   d="M27.155,31.022c0,5.336-2.887,9.656-6.449,9.656c-3.562,0-6.449-4.32-6.449-9.656      c0-5.333,2.886-9.656,6.449-9.656C24.268,21.366,27.155,25.689,27.155,31.022z"
   id="path5268" />
			</g>
		</g>
		<g
   id="g5270">
			<g
   id="g5272">
				<ellipse
   fill="#25333A"
   cx="20.706"
   cy="31.022"
   rx="4.172"
   ry="5.06"
   id="ellipse5274" />
			</g>
		</g>
		<g
   id="g5276">
			<g
   id="g5278">
				<path
   fill="#633D19"
   d="M28.816,26.917c-1.868-6.641-10.356-10.152-16.683-10.223c-1.848-0.021-2.269,2.863-0.394,2.882      c5.326,0.061,12.756,2.234,14.359,7.934C26.608,29.318,29.32,28.705,28.816,26.917z"
   id="path5280" />
			</g>
		</g>
	</g>
	<g
   id="g5282">
		<g
   id="g5284">
			<path
   fill="#633D19"
   d="M21.26,51.298c-0.625,0.713-0.239,1.904,0.79,1.904c1.188,0,5.451-1.799,9.68-1.799     c4.734,0,9.421,1.799,9.68,1.799c1.028,0,1.406-1.191,0.795-1.904C36.532,44.757,26.923,44.757,21.26,51.298z"
   id="path5286" />
		</g>
	</g>
</g>
</svg>
